X:12189
T:O'Keefe's slide
M:12/8
L:1/8
R:Slide
K:G maj
|:A2ee2d BABd2B|A2ee2dB2GG2B|
|A2e e2d BAB d2A|BABd2eB2AA3:|
|:e2aa2ba2ge2d|e2aa2ba2ge2f|
|g2fg2e dBAG3|BABd2eB2AA3:|


